X:1
T:Rest in Jesus
T:Rest in Jesus
T:William Howard Doane
T:Frances Jane (Fanny) Crosby, 1868
T:Public Domain Courtesy of the Cyber Hymnal™
C:William Howard Doane
Z:Public Domain
Z:Courtesy of the Cyber Hymnal™
%%score ( 1 2 ) ( 3 4 )
L:1/8
Q:1/4=110
M:4/4
K:Eb
V:1 treble 
V:2 treble 
V:3 bass 
V:4 bass 
V:1
 [EG]3 [DF] E2 [EA]2 | ([EG]3 [DF]) E4 | [DF]2 ([EG][FA]) [EG]2 [DF]2 | [EG]6 z2 | %4
w: 1.~Come with all thy|sor- * row,|Wea- ry * wan- dering|soul!|
w: 2.~He, thy strength in|weak- * ness,|Will thy * ref- uge|be;|
w: 3.~Come in faith be-|liev- * ing,|To His * will re-|signed;|
w: 4.~See the door of|mer- * cy!|Wouldst thou * en- ter|there?|
 [EG]3 [DF] E2 [EA]2 | ([EG]3 [DF]) E4 | [DF]2 ([EG][FA]) [EG]2 [DF]2 | E6 z2 || %8
w: Come to Him who|loves * thee—|He will * make thee|whole.|
w: Cast on Him thy|bur- * den—|He will * care for|thee.|
w: Ask, and He will|give * thee;|Seek, and * thou shalt|find.|
w: Knock, and He will|o- * pen;|Lo! the * key is|prayer.|
"^Refrain" [Ec]3 [Ec] [Ee]2 [Ac]2 | [GB]4 [EG]4 | [EB]4 [DA]4 | [EG]6 z2 | [Ec]3 [Ec] [Ee]2 [Ec]2 | %13
w: |||||
w: There is rest in|Je- sus,|Sweet, sweet|rest;|There is rest in|
w: |||||
w: |||||
 [EB]4 [EG]4 | [DB]4 [FA]4 | [EG]6 z2 |] %16
w: |||
w: Je- sus,|Sweet, sweet|rest.|
w: |||
w: |||
V:2
 x4 E2 x2 | x4 E4 | x8 | x8 | x4 E2 x2 | x4 E4 | x8 | E6 x2 || x8 | x8 | x8 | x8 | x8 | x8 | x8 | %15
 x8 |] %16
V:3
 [E,B,]3 [B,,A,] [E,G,]2 [E,C]2 | (B,3 A,) [E,G,]4 | [B,,B,]2 [B,,B,]2 [B,,B,]2 [B,,B,]2 | %3
 [E,B,]6 z2 | [E,B,]3 [B,,A,] [E,G,]2 [E,C]2 | (B,3 A,) [E,G,]4 | %6
 [B,,B,]2 [B,,B,]2 [B,,B,]2 [B,,B,]2 | [E,G,]6 z2 || A,3 A, [A,C]2 [A,E]2 | [E,E]4 [E,B,]4 | %10
 [G,B,]4 [F,B,]4 | [E,B,]6 z2 | [A,,A,]3 [A,,A,] [A,,C]2 [C,A,]2 | [E,G,]4 [E,B,]4 | %14
 [B,,B,]4 [B,,B,]4 | [E,B,]6 z2 |] %16
V:4
 x8 | E,4 x4 | x8 | x8 | x8 | E,4 x4 | x8 | x8 || A,3 A, x4 | x8 | x8 | x8 | x8 | x8 | x8 | x8 |] %16

